X:0432
T:Lillignoneth Francoise.
M:6/8
L:1/8
Q:3/8=120
I: :: :: :: ::
Z:Jack Campin * www.campin.me.uk * 2009
K:F
F   | A2A  ABG| F2F  F2f| c2a c2B |   A3          TG2
F/G/| A2A  ABG| F2F  F2f| edc Gc=B|{B}c3           c2   ::
c   | g2c  b2a| g2f  e2f| g2c b2a |   gfe          fc_e  |
      dbd  BdB| cac  A2b| agf gfe |   f3           f2   ::
F   |TA3   GFG| F2F  F2A|Tc3  BAB |   A2A          A2
f   |Tf2e Te2d|Td2c Tc2B| ABc cBA |  [GC][GC][GC] [G2C2]::
c   |_e3   dec| B2B  B2d| f3  efd |   c2c          c2
g   |Tb2a  g2f|Tb2a  g2f| dba gfe |   fff          f2   :|

